assets/img/BNB.svg

<?xml version="1.0" encoding="UTF-8"?>
<svg id="Calque_2" data-name="Calque 2" xmlns="http://www.w3.org/2000/svg" viewBox="0 0 54 54">
  <defs>
    <style>
      .cls-1 {
        fill: #ffe600;
        fill-rule: evenodd;
      }
    </style>
  </defs>
  <g id="Calque_1-2" data-name="Calque 1">
    <path class="cls-1" d="m6,33l6-6-6-6L0,27l6,6Z"/>
    <path class="cls-1" d="m48,33l6-6-6-6-6,6,6,6Z"/>
    <path class="cls-1" d="m27,33l6-6-6-6-6,6,6,6Z"/>
    <path class="cls-1" d="m30,3l-3-3L10.5,16.5l6,6,10.5-10.5,10.5,10.5,6-6L30,3Z"/>
    <path class="cls-1" d="m24,51l3,3,16.5-16.5-6-6-10.5,10.5-10.5-10.5-6,6,13.5,13.5Z"/>
  </g>
</svg>

<svg width="67" height="61" viewBox="0 0 67 61" fill="none" xmlns="http://www.w3.org/2000/svg">
<g filter="url(#filter0_d_44_2)">
<path fill-rule="evenodd" clip-rule="evenodd" d="M6 33L12 27L6 21L0 27L6 33Z" fill="#FFE600"/>
</g>
<g filter="url(#filter1_d_44_2)">
<path fill-rule="evenodd" clip-rule="evenodd" d="M48 33L54 27L48 21L42 27L48 33Z" fill="#FFE600"/>
</g>
<g filter="url(#filter2_d_44_2)">
<path fill-rule="evenodd" clip-rule="evenodd" d="M27 33L33 27L27 21L21 27L27 33Z" fill="#FFE600"/>
</g>
<g filter="url(#filter3_d_44_2)">
<path fill-rule="evenodd" clip-rule="evenodd" d="M30 3L27 1.68619e-08L10.5 16.5L16.5 22.5L27 12L37.5 22.5L43.5 16.5L30 3Z" fill="#FFE600"/>
</g>
<g filter="url(#filter4_d_44_2)">
<path fill-rule="evenodd" clip-rule="evenodd" d="M24 51L27 54L43.5 37.5L37.5 31.5L27 42L16.5 31.5L10.5 37.5L24 51Z" fill="#FFE600"/>
</g>
<defs>
<filter id="filter0_d_44_2" x="0" y="21" width="25" height="24" filterUnits="userSpaceOnUse" color-interpolation-filters="sRGB">
<feFlood flood-opacity="0" result="BackgroundImageFix"/>
<feColorMatrix in="SourceAlpha" type="matrix" values="0 0 0 0 0 0 0 0 0 0 0 0 0 0 0 0 0 0 127 0" result="hardAlpha"/>
<feOffset dx="9" dy="8"/>
<feGaussianBlur stdDeviation="2"/>
<feComposite in2="hardAlpha" operator="out"/>
<feColorMatrix type="matrix" values="0 0 0 0 0 0 0 0 0 0 0 0 0 0 0 0 0 0 0.5 0"/>
<feBlend mode="normal" in2="BackgroundImageFix" result="effect1_dropShadow_44_2"/>
<feBlend mode="normal" in="SourceGraphic" in2="effect1_dropShadow_44_2" result="shape"/>
</filter>
<filter id="filter1_d_44_2" x="42" y="21" width="25" height="24" filterUnits="userSpaceOnUse" color-interpolation-filters="sRGB">
<feFlood flood-opacity="0" result="BackgroundImageFix"/>
<feColorMatrix in="SourceAlpha" type="matrix" values="0 0 0 0 0 0 0 0 0 0 0 0 0 0 0 0 0 0 127 0" result="hardAlpha"/>
<feOffset dx="9" dy="8"/>
<feGaussianBlur stdDeviation="2"/>
<feComposite in2="hardAlpha" operator="out"/>
<feColorMatrix type="matrix" values="0 0 0 0 0 0 0 0 0 0 0 0 0 0 0 0 0 0 0.5 0"/>
<feBlend mode="normal" in2="BackgroundImageFix" result="effect1_dropShadow_44_2"/>
<feBlend mode="normal" in="SourceGraphic" in2="effect1_dropShadow_44_2" result="shape"/>
</filter>
<filter id="filter2_d_44_2" x="21" y="21" width="25" height="24" filterUnits="userSpaceOnUse" color-interpolation-filters="sRGB">
<feFlood flood-opacity="0" result="BackgroundImageFix"/>
<feColorMatrix in="SourceAlpha" type="matrix" values="0 0 0 0 0 0 0 0 0 0 0 0 0 0 0 0 0 0 127 0" result="hardAlpha"/>
<feOffset dx="9" dy="8"/>
<feGaussianBlur stdDeviation="2"/>
<feComposite in2="hardAlpha" operator="out"/>
<feColorMatrix type="matrix" values="0 0 0 0 0 0 0 0 0 0 0 0 0 0 0 0 0 0 0.5 0"/>
<feBlend mode="normal" in2="BackgroundImageFix" result="effect1_dropShadow_44_2"/>
<feBlend mode="normal" in="SourceGraphic" in2="effect1_dropShadow_44_2" result="shape"/>
</filter>
<filter id="filter3_d_44_2" x="10.5" y="0" width="46" height="34.5" filterUnits="userSpaceOnUse" color-interpolation-filters="sRGB">
<feFlood flood-opacity="0" result="BackgroundImageFix"/>
<feColorMatrix in="SourceAlpha" type="matrix" values="0 0 0 0 0 0 0 0 0 0 0 0 0 0 0 0 0 0 127 0" result="hardAlpha"/>
<feOffset dx="9" dy="8"/>
<feGaussianBlur stdDeviation="2"/>
<feComposite in2="hardAlpha" operator="out"/>
<feColorMatrix type="matrix" values="0 0 0 0 0 0 0 0 0 0 0 0 0 0 0 0 0 0 0.5 0"/>
<feBlend mode="normal" in2="BackgroundImageFix" result="effect1_dropShadow_44_2"/>
<feBlend mode="normal" in="SourceGraphic" in2="effect1_dropShadow_44_2" result="shape"/>
</filter>
<filter id="filter4_d_44_2" x="10.5" y="31.5" width="46" height="34.5" filterUnits="userSpaceOnUse" color-interpolation-filters="sRGB">
<feFlood flood-opacity="0" result="BackgroundImageFix"/>
<feColorMatrix in="SourceAlpha" type="matrix" values="0 0 0 0 0 0 0 0 0 0 0 0 0 0 0 0 0 0 127 0" result="hardAlpha"/>
<feOffset dx="9" dy="8"/>
<feGaussianBlur stdDeviation="2"/>
<feComposite in2="hardAlpha" operator="out"/>
<feColorMatrix type="matrix" values="0 0 0 0 0 0 0 0 0 0 0 0 0 0 0 0 0 0 0.5 0"/>
<feBlend mode="normal" in2="BackgroundImageFix" result="effect1_dropShadow_44_2"/>
<feBlend mode="normal" in="SourceGraphic" in2="effect1_dropShadow_44_2" result="shape"/>
</filter>
</defs>
</svg>
